X: 29298
T: New School Year
R: jig
M: 6/8
K: Gmajor
d2B|:"G"GBd "G"GBd|"Am"Ace "Am"Ace|"Am"cBA "G"BAG|"D"AGF "C"c2B|
"G"GBd "G"GBd|"C" ceg "C"ceg|"Am"cBA "G"BAG|"D"AGF "G"G3:|
"G"GBd "G"g2f|"Am"a2g "G"b2g|"D"(a/b/a/g/)f "Em"gfe|"D"fed "C"c2B|
"G"GBd "G"g2f|"Am"a2g "G"b2g|"D"(a/b/a/g/)f "Em"gfe|"Am"cBA "G"G3||

